src/images/javascript-icon.svg

<svg width="29" height="29" viewBox="0 0 29 29" fill="none" xmlns="http://www.w3.org/2000/svg">
<g clip-path="url(#clip0_93_8)">
<g filter="url(#filter0_d_93_8)">
<path d="M0.10791 0.0225372H29.1079V29.0225H0.10791V0.0225372Z" fill="#902BA9"/>
</g>
<path d="M6.74621 22.4321L8.96539 21.048C9.39359 21.8303 9.78305 22.4922 10.7173 22.4922C11.6128 22.4922 12.1775 22.1313 12.1775 20.7271V11.1776H14.9027V20.7668C14.9027 23.6757 13.2481 24.9998 10.8341 24.9998C8.65398 24.9998 7.38851 23.8362 6.74609 22.4319M16.3829 22.1311L18.6019 20.8071C19.1861 21.7903 19.9453 22.5124 21.2883 22.5124C22.4177 22.5124 23.1377 21.9306 23.1377 21.1281C23.1377 20.1652 22.3979 19.824 21.1521 19.2625L20.4709 18.9613C18.5047 18.0989 17.2005 17.0155 17.2005 14.7285C17.2005 12.622 18.7578 11.017 21.1912 11.017C22.9237 11.017 24.1695 11.639 25.0649 13.264L22.9429 14.6684C22.4756 13.8058 21.9697 13.4648 21.191 13.4648C20.3929 13.4648 19.8867 13.9864 19.8867 14.6684C19.8867 15.5109 20.3929 15.8522 21.5608 16.3738L22.2421 16.6746C24.5587 17.6979 25.8629 18.741 25.8629 21.088C25.8629 23.616 23.9357 25.0001 21.3467 25.0001C18.8161 25.0001 17.1809 23.7563 16.3828 22.1313" fill="white"/>
</g>
<defs>
<filter id="filter0_d_93_8" x="-3.89209" y="0.0225372" width="37" height="37" filterUnits="userSpaceOnUse" color-interpolation-filters="sRGB">
<feFlood flood-opacity="0" result="BackgroundImageFix"/>
<feColorMatrix in="SourceAlpha" type="matrix" values="0 0 0 0 0 0 0 0 0 0 0 0 0 0 0 0 0 0 127 0" result="hardAlpha"/>
<feOffset dy="4"/>
<feGaussianBlur stdDeviation="2"/>
<feComposite in2="hardAlpha" operator="out"/>
<feColorMatrix type="matrix" values="0 0 0 0 0 0 0 0 0 0 0 0 0 0 0 0 0 0 0.25 0"/>
<feBlend mode="normal" in2="BackgroundImageFix" result="effect1_dropShadow_93_8"/>
<feBlend mode="normal" in="SourceGraphic" in2="effect1_dropShadow_93_8" result="shape"/>
</filter>
<clipPath id="clip0_93_8">
<rect width="29" height="29" rx="4" fill="white"/>
</clipPath>
</defs>
</svg>

<svg width="29" height="29" fill="none" xmlns="http://www.w3.org/2000/svg"><g clip-path="url(#a)"><g filter="url(#b)"><path d="M.108.023h29v29h-29v-29z" fill="#902BA9"/></g><path d="m6.746 22.432 2.22-1.384c.428.782.817 1.444 1.751 1.444.896 0 1.46-.36 1.46-1.765v-9.55h2.726v9.59c0 2.909-1.655 4.233-4.069 4.233-2.18 0-3.445-1.164-4.088-2.568m9.637-.3 2.219-1.325c.584.983 1.343 1.705 2.686 1.705 1.13 0 1.85-.581 1.85-1.384 0-.963-.74-1.304-1.986-1.866l-.681-.3c-1.966-.863-3.27-1.947-3.27-4.233 0-2.107 1.557-3.712 3.99-3.712 1.733 0 2.979.622 3.874 2.247l-2.122 1.404c-.467-.862-.973-1.203-1.752-1.203-.798 0-1.304.521-1.304 1.203 0 .843.506 1.184 1.674 1.706l.681.3c2.317 1.024 3.62 2.067 3.62 4.414 0 2.528-1.926 3.912-4.515 3.912-2.53 0-4.166-1.244-4.964-2.869" fill="#fff"/></g><defs><clipPath id="a"><rect width="29" height="29" rx="4" fill="#fff"/></clipPath><filter id="b" x="-3.892" y=".023" width="37" height="37" filterUnits="userSpaceOnUse" color-interpolation-filters="sRGB"><feFlood flood-opacity="0" result="BackgroundImageFix"/><feColorMatrix in="SourceAlpha" values="0 0 0 0 0 0 0 0 0 0 0 0 0 0 0 0 0 0 127 0" result="hardAlpha"/><feOffset dy="4"/><feGaussianBlur stdDeviation="2"/><feComposite in2="hardAlpha" operator="out"/><feColorMatrix values="0 0 0 0 0 0 0 0 0 0 0 0 0 0 0 0 0 0 0.25 0"/><feBlend in2="BackgroundImageFix" result="effect1_dropShadow_93_8"/><feBlend in="SourceGraphic" in2="effect1_dropShadow_93_8" result="shape"/></filter></defs></svg>
